X: 1809
T: Buckingham House
C: Abraham Mackintosh
R: strathspey
B: RSCDS 18-9
Z: 2006 John Chambers <jc:trillian.mit.edu>
M: C
L: 1/16
K: Dm
E \
| "Dm"F3D DDD2 A,3D D3E | "Dm"F3D DDD2 "Gm"GAB2 "A7"A3G \
| "Dm"F3D DDD2 A,3D D3F | "C"EFG2 c3G EC3 G3 :|
E \
| "Dm"Dd3 d3c d3e d3c | "Dm"Ad3 d3e "Dm"f3d "A"e3^c \
| "Dm"d3d f3d "C"e3c "Dm"f3d | "C"c3d c3G EC3 G3 :|
%%center Book18/18092-Buckingham_House-JC.abc

%%sep 1 1 500
%%sep 1 1 500

